lib/brands/logos/axure.svg

<svg xmlns="http://www.w3.org/2000/svg" fill="none" aria-hidden="true" viewBox="0 0 207 57"><g id="Axure"><g id="Group"><path id="Vector" fill="#74BB11" fill-rule="evenodd" d="M84.0091 6.40345C83.65 5.63951 82.8796 5.18408 81.9488 5.18408H78.3518C77.3069 5.18408 76.526 5.60484 76.1146 6.36232L70.7834 14.1516L75.4506 20.5341L83.5989 8.84573C84.4933 7.75916 84.1836 6.77544 84.0091 6.40345" clip-rule="evenodd"/><path id="Vector_2" fill="#009CD9" fill-rule="evenodd" d="M55.9035 6.27356L55.8988 6.26651C55.0861 5.18347 54.0048 5.18347 53.6493 5.18347H50.1311C49.2296 5.18347 48.4915 5.59777 48.106 6.31881C47.7094 7.05749 47.7934 7.94484 48.3423 8.76696L61.3757 26.8348L46.3883 47.7387C45.8647 48.525 45.7913 49.3988 46.1868 50.1369C46.5746 50.8579 47.3133 51.2711 48.213 51.2711H51.8094C52.7344 51.2711 53.5477 50.7909 53.9543 50.0346L70.7299 26.9183L55.9035 6.27356Z" clip-rule="evenodd"/><path id="Vector_3" fill="#EB2084" fill-rule="evenodd" d="M85.7988 47.9214L75.3422 33.571L70.7427 39.9118L79.0121 50.9484L79.2272 51.0424C79.5553 51.1899 79.9105 51.2676 80.2702 51.2704H83.7873C84.6371 51.2704 85.3581 50.8932 85.7665 50.2338C86.1849 49.558 86.1967 48.7159 85.7988 47.9214" clip-rule="evenodd"/><g id="Vector_4"><path fill="#272727" fill-rule="evenodd" d="M184.085 4.70509C176.028 4.70509 171.477 6.26059 168.863 9.90578C166.133 13.7132 165.584 19.7231 165.584 28.1876C165.584 44.8039 168.155 51.75 184.085 51.75C185.998 51.75 192.538 51.7135 196.356 51.2475C197.842 51.0013 198.507 49.8636 198.507 48.8458V47.0106C198.507 45.5826 197.428 44.5048 195.996 44.5048H184.084C175.097 44.5048 173.476 42.3863 173.245 30.3419V26.4428C173.322 14.1175 174.943 11.9502 184.085 11.9502C192.514 11.9502 194.131 13.8736 194.411 24.7245H181.017V32.0502H198.634C202.104 32.0502 202.104 29.6232 202.104 28.8263V26.4875C201.853 9.5908 197.81 4.70509 184.085 4.70509ZM160.887 5.35091L160.695 5.30037C159.054 4.95542 154.571 4.70509 152.347 4.70509C144.481 4.70509 140.323 7.99886 140.323 14.2303V48.9251C140.323 50.3531 141.322 51.3509 142.754 51.3509H145.552C146.985 51.3509 147.984 50.3537 147.984 48.9251V14.8673C147.984 13.3294 148.373 11.9502 153.067 11.9502L160.018 11.9443C160.699 12.0254 161.348 11.8374 161.848 11.4137C162.394 10.9536 162.694 10.2819 162.694 9.5244V7.76909C162.694 6.6173 162.035 5.73582 160.887 5.35091ZM127.289 5.26394H124.491C123.06 5.26394 122.059 6.26118 122.059 7.68976V44.5054H110.422C103.223 44.5054 100.302 44.0476 100.302 32.5744V7.68976C100.302 6.26177 99.3021 5.26394 97.8706 5.26394H95.1515C93.72 5.26394 92.6405 6.30643 92.6405 7.68976V32.5744C92.6405 48.8805 98.5546 51.75 110.981 51.75C115.451 51.75 121.573 51.75 127.412 50.9278L127.547 50.9008C128.989 50.5406 129.721 49.7149 129.721 48.4468V7.68976C129.721 6.26177 128.72 5.26394 127.289 5.26394Z" clip-rule="evenodd"/><path fill="#272727" fill-rule="evenodd" d="M32.5557 31.7305V43.9172C28.9945 44.4637 23.5664 44.5847 21.7165 44.5847C13.5329 44.5847 12.6361 42.3487 12.6361 37.5999C12.6361 33.1561 14.2992 31.7299 19.4782 31.7299L32.5557 31.7305ZM21.3169 4.7045C18.7882 4.7045 15.3399 4.77031 11.0495 5.28627L10.8556 5.32917C9.60564 5.6847 8.97274 6.50564 8.97274 7.76909V9.52381C8.97274 11.02 9.90417 11.9496 11.4038 11.9496H21.3175C29.2995 11.9496 32.5557 14.1122 32.5557 19.4134V24.5653H19.4782C9.25717 24.5653 4.89563 28.4632 4.89563 37.5994C4.89563 47.7821 9.40995 51.75 20.9972 51.75C25.6908 51.75 34.3304 51.385 37.5237 50.4113C40.2163 49.6638 40.2163 47.607 40.2163 46.9312V18.9356C40.2163 9.35986 34.0342 4.7045 21.3175 4.7045H21.3169Z" clip-rule="evenodd"/></g></g></g></svg>

<svg xmlns="http://www.w3.org/2000/svg" fill="none" aria-hidden="true" viewBox="0 0 207 57"><path fill="#74BB11" fill-rule="evenodd" d="M84.01 6.403c-.36-.763-1.13-1.219-2.061-1.219h-3.597c-1.045 0-1.826.42-2.237 1.178l-5.332 7.79 4.668 6.382 8.148-11.688c.894-1.087.585-2.07.41-2.443" clip-rule="evenodd"/><path fill="#009CD9" fill-rule="evenodd" d="m55.904 6.274-.005-.007c-.813-1.084-1.894-1.084-2.25-1.084h-3.518c-.901 0-1.64.415-2.025 1.136-.397.738-.313 1.626.236 2.448l13.034 18.068-14.988 20.904c-.523.786-.597 1.66-.201 2.398.388.72 1.126 1.134 2.026 1.134h3.596c.925 0 1.739-.48 2.145-1.236L70.73 26.918 55.904 6.274Z" clip-rule="evenodd"/><path fill="#EB2084" fill-rule="evenodd" d="m85.799 47.921-10.457-14.35-4.6 6.34 8.27 11.037.215.094c.328.148.683.225 1.043.228h3.517c.85 0 1.571-.377 1.98-1.036.418-.676.43-1.518.032-2.313" clip-rule="evenodd"/><path fill="#272727" fill-rule="evenodd" d="M184.085 4.705c-8.057 0-12.608 1.556-15.222 5.2-2.73 3.808-3.279 9.818-3.279 18.283 0 16.616 2.571 23.562 18.501 23.562 1.913 0 8.453-.036 12.271-.502 1.486-.247 2.151-1.384 2.151-2.402V47.01c0-1.428-1.079-2.506-2.511-2.506h-11.912c-8.987 0-10.608-2.119-10.839-14.163v-3.9c.077-12.325 1.698-14.492 10.84-14.492 8.429 0 10.046 1.924 10.326 12.774h-13.394v7.326h17.617c3.47 0 3.47-2.427 3.47-3.224v-2.338c-.251-16.897-4.294-21.783-18.019-21.783Zm-23.198.646-.192-.05c-1.641-.346-6.124-.596-8.348-.596-7.866 0-12.024 3.294-12.024 9.525v34.695c0 1.428.999 2.426 2.431 2.426h2.798c1.433 0 2.432-.997 2.432-2.426V14.867c0-1.538.389-2.917 5.083-2.917l6.951-.006a2.361 2.361 0 0 0 1.83-.53c.546-.46.846-1.132.846-1.89V7.77c0-1.152-.659-2.033-1.807-2.418Zm-33.598-.087h-2.798c-1.431 0-2.432.997-2.432 2.426v36.815h-11.637c-7.199 0-10.12-.457-10.12-11.93V7.69c0-1.428-1-2.426-2.431-2.426h-2.72c-1.431 0-2.51 1.042-2.51 2.426v24.884c0 16.306 5.914 19.176 18.34 19.176 4.47 0 10.592 0 16.431-.822l.135-.027c1.442-.36 2.174-1.186 2.174-2.454V7.69c0-1.428-1.001-2.426-2.432-2.426ZM32.556 31.73v12.187c-3.561.547-8.99.668-10.84.668-8.183 0-9.08-2.236-9.08-6.985 0-4.444 1.663-5.87 6.842-5.87h13.078ZM21.316 4.704c-2.528 0-5.976.066-10.266.582l-.194.043c-1.25.356-1.883 1.177-1.883 2.44v1.755c0 1.496.931 2.426 2.43 2.426h9.914c7.982 0 11.239 2.162 11.239 7.463v5.152H19.478c-10.22 0-14.582 3.898-14.582 13.034 0 10.183 4.514 14.15 16.101 14.15 4.694 0 13.333-.364 16.527-1.338 2.692-.747 2.692-2.804 2.692-3.48V18.936c0-9.576-6.182-14.232-18.899-14.232Z" clip-rule="evenodd"/></svg>
